static/logos/outreach-wordmark-color.svg

<svg width="100" height="20" viewBox="0 0 100 20" fill="none" xmlns="http://www.w3.org/2000/svg">
<path fill-rule="evenodd" clip-rule="evenodd" d="M98.9187 8.74533C99.5053 9.36267 99.7987 10.1987 99.7987 11.2553V16.8247H97.6233V11.8887C97.6233 11.266 97.446 10.7747 97.0927 10.4127C96.738 10.052 96.256 9.87133 95.6473 9.87133C94.9273 9.882 94.3573 10.1273 93.9367 10.6047C93.516 11.0827 93.306 11.694 93.306 12.4387V16.8247H91.1467V4.45133H93.306V9.60467C93.9147 8.43667 94.9833 7.84267 96.5107 7.82C97.5293 7.82 98.332 8.12867 98.9187 8.74533ZM86.352 9.738C85.632 9.738 85.0487 9.982 84.6 10.4713C84.152 10.9607 83.9273 11.5947 83.9273 12.3727C83.9273 13.1727 84.152 13.8173 84.6007 14.3067C85.0487 14.796 85.6327 15.04 86.3527 15.04C87.4153 15.04 88.2127 14.69 88.744 13.99L90.0887 15.1067C89.6913 15.6843 89.1467 16.1451 88.5113 16.4413C87.858 16.7527 87.1 16.908 86.236 16.908C85.3613 16.908 84.584 16.7193 83.9027 16.3413C83.232 15.9735 82.682 15.4204 82.3173 14.748C81.9407 14.0647 81.752 13.2787 81.752 12.3893C81.752 11.4887 81.9433 10.694 82.3253 10.0047C82.6927 9.32987 83.246 8.7744 83.9193 8.404C84.6 8.026 85.3833 7.83733 86.2693 7.83733C87.0773 7.83733 87.8 7.97867 88.4367 8.262C89.0733 8.54533 89.5907 8.94867 89.99 9.47067L88.6773 10.7213C88.0793 10.066 87.3047 9.738 86.3527 9.738H86.352ZM80.378 7.90333V16.8247H78.2187V15.4073C77.9113 15.8841 77.4847 16.2722 76.9813 16.5333C76.4773 16.7947 75.8993 16.9247 75.246 16.9247C74.4047 16.9247 73.666 16.7327 73.0287 16.3493C72.392 15.966 71.8967 15.4267 71.542 14.732C71.1887 14.0373 71.0113 13.2393 71.0113 12.3387C71.0113 11.45 71.188 10.6633 71.5427 9.97933C71.896 9.296 72.392 8.76467 73.0293 8.38733C73.6653 8.00933 74.3987 7.82 75.2293 7.82C75.8827 7.82 76.464 7.95067 76.9733 8.212C77.48 8.4712 77.9093 8.85933 78.2187 9.33733V7.904H80.378V7.90333ZM77.438 14.4487C77.892 14.0093 78.152 13.4287 78.2187 12.706V12.0727C78.152 11.3493 77.892 10.7687 77.4387 10.33C76.984 9.89 76.4087 9.67133 75.7107 9.67133C74.9693 9.67133 74.366 9.924 73.9007 10.43C73.436 10.936 73.1973 11.5887 73.1873 12.3893C73.1973 13.1893 73.436 13.8427 73.9007 14.3487C74.366 14.854 74.9693 15.1073 75.7107 15.1073C76.4087 15.1073 76.984 14.8873 77.438 14.4487ZM68.8427 9.054C69.5567 9.86533 69.914 11.0047 69.914 12.4727C69.914 12.762 69.908 12.978 69.8973 13.1227H63.3373C63.4813 13.7567 63.7773 14.254 64.226 14.6153C64.674 14.9767 65.2253 15.1573 65.8787 15.1573C66.326 15.1587 66.7693 15.0708 67.182 14.8987C67.5927 14.73 67.9633 14.4773 68.27 14.1567L69.432 15.374C68.9833 15.8673 68.43 16.2544 67.8127 16.5073C67.176 16.7747 66.4707 16.908 65.6953 16.908C64.788 16.908 63.988 16.7193 63.296 16.3413C62.6181 15.9775 62.0611 15.4237 61.6933 14.748C61.3167 14.0647 61.1287 13.2787 61.1287 12.3893C61.1287 11.5 61.3193 10.7107 61.702 10.0213C62.0723 9.3436 62.628 8.7854 63.304 8.412C63.9907 8.028 64.7707 7.83667 65.6453 7.83667C67.0633 7.83667 68.1287 8.24333 68.8427 9.054ZM67.938 11.672C67.9153 11.016 67.6993 10.494 67.29 10.1047C66.8807 9.71533 66.338 9.52067 65.6627 9.52067C65.0313 9.52067 64.5027 9.71267 64.076 10.0967C63.65 10.48 63.3873 11.0047 63.288 11.672H67.938ZM58.7827 8.29533C59.2973 7.98933 59.898 7.83133 60.5847 7.82V9.92133C59.6647 9.86533 58.932 10.0793 58.384 10.5633C57.836 11.0467 57.562 11.7 57.562 12.522V16.8247H55.4033V7.90333H57.562V9.62067C57.8607 9.04333 58.268 8.60067 58.782 8.29533H58.7827ZM53.786 16.2733C53.0773 16.7067 52.3353 16.924 51.5607 16.924C50.7967 16.924 50.1707 16.6987 49.684 16.2487C49.1967 15.798 48.9533 15.134 48.9533 14.256V5.81867L51.0953 5.56267V8.27H53.636V9.85467H51.096V13.8733C51.096 14.2847 51.1727 14.5767 51.328 14.7487C51.4833 14.9213 51.7147 15.0073 52.0253 15.0073C52.3573 15.0073 52.7787 14.8847 53.2873 14.64L53.786 16.274V16.2733ZM44.9533 7.90333H47.0953V12.904C47.0953 15.8227 45.066 16.908 43.0073 16.908C40.948 16.908 38.9193 15.8227 38.9193 12.904V7.904H41.062V12.9813C41.062 14.1 41.8933 15.0073 43.0073 15.0073C44.1213 15.0073 44.9527 14.1007 44.9527 12.9813V7.90333H44.9533ZM34.4807 5.78533C35.4058 6.28749 36.1776 7.03093 36.714 7.93667C37.2573 8.848 37.528 9.86 37.528 10.972C37.528 12.0833 37.2573 13.098 36.7147 14.0147C36.178 14.9265 35.4068 15.6779 34.4813 16.1907C33.5347 16.724 32.4853 16.9907 31.334 16.9907C30.182 16.9907 29.134 16.724 28.1873 16.1907C27.2615 15.6781 26.4901 14.9266 25.9533 14.0147C25.4107 13.098 25.1393 12.0833 25.1393 10.972C25.1393 9.86 25.4107 8.848 25.9527 7.93667C26.4892 7.0308 27.2613 6.28734 28.1867 5.78533C29.1333 5.26333 30.182 5.002 31.3333 5.002C32.4853 5.002 33.534 5.26333 34.4807 5.78533ZM29.3907 7.52867C28.7905 7.86993 28.2919 8.3646 27.946 8.962C27.5913 9.56867 27.4147 10.238 27.4147 10.972C27.4147 11.7053 27.5947 12.3787 27.9547 12.9893C28.3031 13.5896 28.801 14.0894 29.4 14.44C30.0033 14.796 30.6587 14.9733 31.368 14.9733C32.0522 14.977 32.7243 14.7925 33.3107 14.44C33.9033 14.0897 34.3931 13.5893 34.7307 12.9893C35.0803 12.3749 35.2609 11.6789 35.254 10.972C35.254 10.2387 35.0793 9.56867 34.7307 8.96267C34.3924 8.36753 33.9025 7.87273 33.3107 7.52867C32.7226 7.18093 32.0512 6.99913 31.368 7.00267C30.6741 6.99893 29.9917 7.18053 29.3913 7.52867H29.3907ZM8.876 0C11.9327 0 16.5513 0.941333 18.7013 3.1C19.246 3.64733 19.9587 4.71933 19.9587 6.28933C19.9587 9.08067 17.7187 13.3633 15.2453 15.8473C13.9667 17.1313 11.9327 18.8093 9.19667 18.8093C6.522 18.8093 4.47933 16.9853 3.888 16.3913C1.62267 14.1167 0 10.664 0 7.44467C0 5.41333 0.576667 3.63667 2.048 2.16C3.41067 0.792 5.75867 0 8.876 0ZM12.6593 11.132C13.6913 10.0953 13.9693 8.81867 13.9693 8.116C13.9693 7.60667 13.836 6.85933 13.2013 6.22267C12.228 5.24533 11.15 4.96933 9.97733 4.96933C8.492 4.96933 7.494 5.44067 6.82933 6.10867C6.308 6.632 5.85733 7.43667 5.85733 8.58C5.85733 9.72267 6.464 10.8267 7.12533 11.49C7.736 12.1033 8.696 12.5573 9.66267 12.5573C10.6293 12.5573 11.6273 12.1687 12.6593 11.132Z" fill="#5952FF"/>
</svg>

<svg xmlns="http://www.w3.org/2000/svg" width="320" height="64" fill="none" viewBox="0 0 100 20"><path fill="#5952FF" fill-rule="evenodd" d="M98.919 8.745c.586.618.88 1.454.88 2.51v5.57h-2.176v-4.936c0-.623-.177-1.114-.53-1.476-.355-.361-.837-.542-1.446-.542-.72.011-1.29.256-1.71.734-.421.478-.631 1.089-.631 1.834v4.386h-2.16V4.45h2.16v5.154c.609-1.168 1.677-1.762 3.205-1.785 1.018 0 1.821.309 2.408.925Zm-12.567.993c-.72 0-1.303.244-1.752.733-.448.49-.673 1.124-.673 1.902 0 .8.225 1.444.674 1.934.448.489 1.032.733 1.752.733 1.062 0 1.86-.35 2.391-1.05l1.345 1.117a3.93 3.93 0 0 1-1.578 1.334c-.653.312-1.411.467-2.275.467-.875 0-1.652-.189-2.333-.567a3.981 3.981 0 0 1-1.586-1.593c-.376-.683-.565-1.47-.565-2.359 0-.9.191-1.695.573-2.384.368-.675.921-1.23 1.594-1.601.681-.378 1.464-.567 2.35-.567.808 0 1.531.142 2.168.425a3.927 3.927 0 0 1 1.553 1.209l-1.313 1.25c-.598-.655-1.372-.983-2.324-.983h-.001Zm-5.974-1.835v8.922h-2.16v-1.418a3.256 3.256 0 0 1-1.237 1.126c-.504.262-1.082.392-1.735.392-.841 0-1.58-.192-2.217-.576a3.923 3.923 0 0 1-1.487-1.617c-.353-.695-.53-1.493-.53-2.393 0-.889.176-1.676.53-2.36a3.876 3.876 0 0 1 1.487-1.592c.636-.378 1.37-.567 2.2-.567.654 0 1.235.13 1.744.392.507.26.936.647 1.246 1.125V7.904h2.159Zm-2.94 6.546c.454-.44.714-1.02.78-1.743v-.633c-.066-.724-.326-1.304-.78-1.743-.454-.44-1.03-.659-1.727-.659-.742 0-1.345.253-1.81.759-.465.506-.704 1.159-.714 1.96.01.8.249 1.453.714 1.959.465.505 1.068.758 1.81.758.698 0 1.273-.22 1.727-.658Zm-8.595-5.395c.714.811 1.071 1.95 1.071 3.419 0 .289-.006.505-.017.65h-6.56c.144.634.44 1.131.889 1.492.448.362 1 .542 1.653.542a3.36 3.36 0 0 0 1.303-.258c.41-.169.781-.422 1.088-.742l1.162 1.217a4.49 4.49 0 0 1-1.62 1.133c-.636.268-1.341.401-2.117.401-.907 0-1.707-.189-2.399-.567a3.953 3.953 0 0 1-1.603-1.593c-.376-.683-.564-1.47-.564-2.359s.19-1.678.573-2.368a4.066 4.066 0 0 1 1.602-1.609c.687-.384 1.467-.575 2.341-.575 1.418 0 2.484.406 3.198 1.217Zm-.905 2.618c-.023-.656-.239-1.178-.648-1.567-.41-.39-.952-.584-1.627-.584-.632 0-1.16.192-1.587.576-.426.383-.689.908-.788 1.575h4.65Zm-9.155-3.377c.514-.306 1.115-.464 1.802-.475v2.101c-.92-.056-1.653.158-2.201.642s-.822 1.137-.822 1.959v4.303h-2.159V7.903h2.159v1.718c.299-.578.706-1.02 1.22-1.326Zm-4.997 7.978c-.709.434-1.45.651-2.225.651-.764 0-1.39-.225-1.877-.675-.487-.451-.73-1.115-.73-1.993V5.819l2.141-.256V8.27h2.541v1.585h-2.54v4.018c0 .412.077.704.232.876.155.172.387.258.697.258.332 0 .754-.122 1.262-.367l.499 1.634Zm-8.833-8.37h2.142v5.001c0 2.919-2.029 4.004-4.088 4.004s-4.088-1.085-4.088-4.004v-5h2.143v5.077c0 1.119.831 2.026 1.945 2.026s1.946-.906 1.946-2.026V7.903ZM34.481 5.785a5.825 5.825 0 0 1 3.047 5.187c0 1.111-.27 2.126-.813 3.043a5.922 5.922 0 0 1-2.234 2.176c-.946.533-1.996.8-3.147.8-1.152 0-2.2-.267-3.147-.8a5.92 5.92 0 0 1-2.234-2.176c-.542-.917-.814-1.932-.814-3.043a5.824 5.824 0 0 1 3.047-5.187c.947-.522 1.996-.783 3.147-.783 1.152 0 2.201.261 3.148.783ZM29.39 7.53c-.6.34-1.1.836-1.445 1.433a3.907 3.907 0 0 0-.531 2.01c0 .733.18 1.407.54 2.017.348.6.846 1.1 1.445 1.451a3.802 3.802 0 0 0 1.968.533 3.732 3.732 0 0 0 1.943-.533 4 4 0 0 0 1.943-3.468c0-.733-.175-1.403-.523-2.01a3.872 3.872 0 0 0-1.42-1.433 3.778 3.778 0 0 0-1.943-.526 3.899 3.899 0 0 0-1.977.526ZM8.876 0c3.057 0 7.675.941 9.825 3.1.545.547 1.258 1.62 1.258 3.19 0 2.79-2.24 7.073-4.714 9.557-1.278 1.284-3.312 2.962-6.048 2.962-2.675 0-4.718-1.824-5.309-2.418C1.623 14.117 0 10.664 0 7.445 0 5.413.577 3.637 2.048 2.16 3.411.792 5.758 0 8.876 0Zm3.783 11.132c1.032-1.037 1.31-2.313 1.31-3.016 0-.51-.133-1.257-.768-1.893-.973-.978-2.051-1.254-3.224-1.254-1.485 0-2.483.472-3.148 1.14-.521.523-.972 1.328-.972 2.471s.607 2.247 1.268 2.91c.611.613 1.571 1.067 2.538 1.067.966 0 1.964-.388 2.996-1.425Z" clip-rule="evenodd"/></svg>
